src/assets/logo/vice.svg

<?xml version="1.0" encoding="UTF-8" standalone="no"?><!DOCTYPE svg PUBLIC "-//W3C//DTD SVG 1.1//EN" "http://www.w3.org/Graphics/SVG/1.1/DTD/svg11.dtd"><svg width="100%" height="100%" viewBox="0 0 540 200" version="1.1" xmlns="http://www.w3.org/2000/svg" xmlns:xlink="http://www.w3.org/1999/xlink" xml:space="preserve" xmlns:serif="http://www.serif.com/" style="fill-rule:evenodd;clip-rule:evenodd;stroke-linejoin:round;stroke-miterlimit:1.41421;"><g id="vice"><path id="vice1" serif:id="vice" d="M182.437,173.861c-16.943,-1.548 -28.173,-9.586 -30.463,-21.806c-0.48,-2.559 -0.387,-8.669 0.167,-10.977c0.147,-0.613 0.227,-1.114 0.177,-1.114c-0.049,0 -2.635,1.882 -5.746,4.183c-12.038,8.901 -21.945,15.156 -31.983,20.195c-11.581,5.812 -18.32,7.535 -29.544,7.553c-7.616,0.011 -12.293,-0.866 -17.258,-3.239c-7.674,-3.668 -11.262,-9.213 -11.262,-17.404c0,-4.002 0.366,-5.681 1.895,-8.693c0.727,-1.434 1.323,-2.75 1.323,-2.924c0,-0.175 -1.067,-2.258 -2.371,-4.631c-4.644,-8.452 -10.347,-21.143 -14.801,-32.939c-10.23,-27.093 1.826,-50.709 32.236,-63.15c2.092,-0.855 7.291,-3.263 11.554,-5.351c8.777,-4.298 9.584,-4.651 13.505,-5.918c7.728,-2.497 14.792,-1.704 20.524,2.303c3.11,2.174 6.187,6.909 6.921,10.646c0.186,0.948 0.427,2.076 0.536,2.505l0.198,0.782l2.34,-0.711c9.381,-2.849 20.16,-5.275 28.374,-6.387c5.839,-0.791 18.727,-0.968 23.458,-0.322l2.691,0.367l2.12,-1.394c11.287,-7.42 30.217,-7.641 57.697,-0.674c8.721,2.211 13.555,3.695 18.287,5.614c8.982,3.641 9.363,3.623 16.951,-0.816c7.376,-4.315 20.022,-9.138 30.146,-11.499c6.763,-1.576 11.058,-2.048 18.747,-2.06c8.63,-0.013 11.958,0.433 17.816,2.386c5.757,1.92 7.253,2.101 12.042,1.459c5.187,-0.695 20.611,-0.947 29.522,-0.482c21.508,1.12 36.524,3.356 75.03,11.171c16.995,3.449 30.531,6.036 36.125,6.903l1.609,0.25l-0.031,1.081c-0.018,0.595 -0.281,1.413 -0.585,1.818c-2.535,3.367 -13.978,17.672 -16.747,20.936c-4.649,5.479 -10.791,11.672 -15.035,15.16l-3.477,2.859l0.199,3.141c0.226,3.563 -0.194,7.891 -1,10.318l-0.527,1.588l2.454,3.197c2.66,3.464 4.918,7.075 5.917,9.459l0.63,1.505l-0.59,2.656c-3.958,17.826 -12.885,29.562 -27.594,36.28c-11.306,5.163 -42.459,12.297 -63.984,14.651c-11.788,1.289 -27.741,1.575 -35.394,0.634c-12.425,-1.528 -21.221,-4.356 -28.018,-9.008l-2.424,-1.658l-2.403,1.297c-7.431,4.013 -18.115,7.135 -30.045,8.781c-5.747,0.792 -19.618,1.119 -25.484,0.6c-13.838,-1.225 -25.771,-4.82 -33.653,-10.14c-0.961,-0.649 -1.821,-1.18 -1.911,-1.18c-0.089,0 -1.036,0.836 -2.103,1.858c-5.268,5.046 -13.311,8.515 -22.882,9.871c-3.915,0.555 -10.502,0.778 -13.876,0.47l0,0Zm12.301,-16.669c5.954,-0.687 10.305,-2.258 12.22,-4.413c1.465,-1.647 2.397,-3.378 4.305,-7.998c0.926,-2.241 3.137,-7.058 4.913,-10.706l3.229,-6.631l0.192,2.024c1.088,11.484 7.505,18.556 20.956,23.093c14.347,4.839 26.569,5.714 41.5,2.971c12.735,-2.34 27.072,-7.84 40.292,-15.457c1.809,-1.042 3.329,-1.895 3.377,-1.895c0.049,0 0.034,1.652 -0.032,3.67c-0.283,8.657 2.196,10.9 14.807,13.399c11.802,2.338 25.537,2.588 39.987,0.728c12.854,-1.655 42.5,-8.328 52.653,-11.851c12.926,-4.487 19.006,-10.402 21.69,-21.105l0.708,-2.824l-0.624,-0.517c-0.962,-0.797 -3.959,-1.625 -6.71,-1.855c-5.53,-0.461 -12.746,0.777 -26.765,4.593c-13.708,3.732 -20.127,4.909 -28.666,5.256c-9.133,0.371 -19.751,-1.551 -20.93,-3.789c-0.689,-1.309 -0.071,-3.229 1.39,-4.322c4.823,-3.606 12.365,-4.798 33.58,-5.306c21.78,-0.522 29.234,-2.05 35.67,-7.312c4.668,-3.816 7.393,-9.213 6.773,-13.414c-0.787,-5.335 -8.103,-8.629 -18.145,-8.17c-4.835,0.221 -8.27,0.868 -18.301,3.447c-4.424,1.137 -9.492,2.286 -11.262,2.552c-4.685,0.705 -13.836,0.627 -15.039,-0.128c-0.261,-0.165 -0.203,-0.48 0.228,-1.233c0.319,-0.557 1.063,-2.205 1.653,-3.663c1.138,-2.812 2.091,-4.528 2.888,-5.2c0.673,-0.567 10.808,-0.273 20.508,0.596c8.605,0.77 20.15,0.926 24.279,0.327c12.864,-1.865 22.374,-6.981 30.999,-16.675c1.214,-1.366 2.733,-3.001 3.375,-3.633c0.731,-0.721 1.166,-1.421 1.166,-1.874c0,-0.78 -0.234,-0.901 -2.34,-1.211c-3.033,-0.446 -13.161,-2.351 -23.693,-4.458c-25.107,-5.021 -36.596,-6.895 -51.337,-8.376c-7.321,-0.736 -28.347,-0.759 -33.827,-0.037c-5.206,0.686 -5.741,0.984 -12.38,6.896c-0.898,0.8 -1.709,1.377 -1.801,1.283c-0.092,-0.094 0.231,-1.484 0.718,-3.089c0.487,-1.605 0.975,-3.418 1.084,-4.028c0.238,-1.328 0.229,-1.333 -4.795,-2.636c-16.438,-4.262 -33.958,-1.012 -56.644,10.508c-20.666,10.494 -35.373,20.429 -48.705,32.901l-2.681,2.507l2.105,-3.548c5.018,-8.456 8.985,-14.088 16.46,-23.368c5.306,-6.589 5.628,-7.041 5.126,-7.221c-3.124,-1.124 -25.003,-6.434 -33.586,-8.152c-7.899,-1.582 -14.106,-2.172 -18.879,-1.796c-5.793,0.456 -9.035,1.779 -12.649,5.161c-3.764,3.522 -4.584,3.724 -9.737,2.396c-8.107,-2.088 -18.837,-1.738 -33.034,1.077c-20.188,4.003 -27.376,7.803 -28.001,14.804c-0.107,1.198 0.117,3.027 0.788,6.424c1.609,8.155 1.082,9.908 -6.702,22.278c-3.467,5.508 -5.325,7.927 -7.429,9.669c-1.824,1.51 -3.683,2.517 -4.018,2.177c-0.694,-0.705 -1.208,-7.768 -1.057,-14.512c0.203,-9.032 1.911,-19.788 5.618,-35.372c1.356,-5.7 1.683,-11.204 0.883,-14.856l-0.506,-2.315l-2.531,0.163c-3.814,0.245 -5.781,1.019 -13.793,5.429c-2.172,1.195 -6.647,3.267 -9.945,4.603c-13.263,5.374 -19.495,9.159 -23.612,14.342c-3.974,5.003 -5.578,10.333 -5.271,17.525c0.194,4.537 0.74,6.496 4.501,16.128c6.064,15.535 9.979,23.383 17.243,34.563c1.835,2.825 3.336,5.264 3.336,5.421c0,0.157 -1.555,1.859 -3.455,3.782c-2.688,2.719 -3.533,3.768 -3.803,4.719c-0.539,1.9 -0.435,2.376 0.734,3.355c1.925,1.613 4.069,2.163 9.073,2.33c10.693,0.357 19.226,-2.503 35.1,-11.766c17.357,-10.129 27.038,-18.961 47.784,-43.593c3.305,-3.923 7.176,-8.605 8.602,-10.403c3.286,-4.144 4.39,-5.343 5.908,-6.416l1.219,-0.862l0.347,1.558c0.191,0.857 0.412,3.498 0.491,5.868c0.25,7.463 -0.773,11.648 -5.721,23.39c-7.166,17.009 -10.201,29.838 -8.575,36.256c1.083,4.276 6.109,6.769 15.992,7.933c1.99,0.235 8.075,0.168 10.531,-0.116l0,0Zm78.979,-27.92c-6.057,-1.367 -9.32,-4.759 -9.302,-9.67c0.01,-2.638 0.409,-4.099 2.028,-7.419c3.137,-6.431 7.652,-12.046 17.427,-21.67c3.586,-3.531 7.632,-7.688 8.992,-9.239c1.36,-1.55 2.522,-2.768 2.583,-2.707c0.196,0.199 -1.598,6.649 -4.142,14.894c-2.203,7.14 -4.275,14.442 -4.277,15.069c0,0.643 9.543,0.015 23.84,-1.566c5.792,-0.641 11.819,-1.256 13.394,-1.368c2.641,-0.186 2.905,-0.262 3.403,-0.975c0.707,-1.01 1.886,-3.883 2.513,-6.123c0.275,-0.981 0.594,-1.887 0.709,-2.014c0.293,-0.323 1.593,2.209 2.407,4.689c0.881,2.685 0.985,8.802 0.18,10.627c-0.476,1.08 -0.538,1.114 -2.005,1.114c-5.82,0 -13.448,2.247 -22.941,6.756c-17.276,8.206 -21.214,9.518 -29.252,9.743c-2.413,0.067 -4.914,0.003 -5.557,-0.141Zm65.52,-55.217c0.115,-0.289 0.86,-2.398 1.654,-4.687c0.794,-2.288 1.656,-4.736 1.916,-5.438l0.472,-1.278l0.905,0.875c1.399,1.35 3.566,2.31 8.487,3.758c4.148,1.221 7.776,2.59 7.776,2.934c0,0.245 -2.895,0.787 -9.059,1.695c-5.775,0.85 -9.769,1.662 -11.523,2.342c-0.749,0.291 -0.816,0.269 -0.628,-0.201Z" style="fill:#a0a0a0;fill-rule:nonzero;"/></g></svg>

<?xml version="1.0" encoding="UTF-8" standalone="no"?>
<!DOCTYPE svg PUBLIC "-//W3C//DTD SVG 1.1//EN" "http://www.w3.org/Graphics/SVG/1.1/DTD/svg11.dtd">
<svg width="100%" height="100%" viewBox="0 0 540 200" version="1.1" xmlns="http://www.w3.org/2000/svg" xmlns:xlink="http://www.w3.org/1999/xlink" xml:space="preserve" xmlns:serif="http://www.serif.com/" style="fill-rule:evenodd;clip-rule:evenodd;stroke-linejoin:round;stroke-miterlimit:2;">
    <g id="vice">
        <path id="vice1" serif:id="vice" d="M182.437,173.861C165.494,172.313 154.264,164.275 151.974,152.055C151.494,149.496 151.587,143.386 152.141,141.078C152.288,140.465 152.368,139.964 152.318,139.964C152.269,139.964 149.683,141.846 146.572,144.147C134.534,153.048 124.627,159.303 114.589,164.342C103.008,170.154 96.269,171.877 85.045,171.895C77.429,171.906 72.752,171.029 67.787,168.656C60.113,164.988 56.525,159.443 56.525,151.252C56.525,147.25 56.891,145.571 58.42,142.559C59.147,141.125 59.743,139.809 59.743,139.635C59.743,139.46 58.676,137.377 57.372,135.004C52.728,126.552 47.025,113.861 42.571,102.065C32.341,74.972 44.397,51.356 74.807,38.915C76.899,38.06 82.098,35.652 86.361,33.564C95.138,29.266 95.945,28.913 99.866,27.646C107.594,25.149 114.658,25.942 120.39,29.949C123.5,32.123 126.577,36.858 127.311,40.595C127.497,41.543 127.738,42.671 127.847,43.1L128.045,43.882L130.385,43.171C139.766,40.322 150.545,37.896 158.759,36.784C164.598,35.993 177.486,35.816 182.217,36.462L184.908,36.829L187.028,35.435C198.315,28.015 217.245,27.794 244.725,34.761C253.446,36.972 258.28,38.456 263.012,40.375C271.994,44.016 272.375,43.998 279.963,39.559C287.339,35.244 299.985,30.421 310.109,28.06C316.872,26.484 321.167,26.012 328.856,26C337.486,25.987 340.814,26.433 346.672,28.386C352.429,30.306 353.925,30.487 358.714,29.845C363.901,29.15 379.325,28.898 388.236,29.363C409.744,30.483 424.76,32.719 463.266,40.534C480.261,43.983 493.797,46.57 499.391,47.437L501,47.687L500.969,48.768C500.951,49.363 500.688,50.181 500.384,50.586C497.849,53.953 486.406,68.258 483.637,71.522C478.988,77.001 472.846,83.194 468.602,86.682L465.125,89.541L465.324,92.682C465.55,96.245 465.13,100.573 464.324,103L463.797,104.588L466.251,107.785C468.911,111.249 471.169,114.86 472.168,117.244L472.798,118.749L472.208,121.405C468.25,139.231 459.323,150.967 444.614,157.685C433.308,162.848 402.155,169.982 380.63,172.336C368.842,173.625 352.889,173.911 345.236,172.97C332.811,171.442 324.015,168.614 317.218,163.962L314.794,162.304L312.391,163.601C304.96,167.614 294.276,170.736 282.346,172.382C276.599,173.174 262.728,173.501 256.862,172.982C243.024,171.757 231.091,168.162 223.209,162.842C222.248,162.193 221.388,161.662 221.298,161.662C221.209,161.662 220.262,162.498 219.195,163.52C213.927,168.566 205.884,172.035 196.313,173.391C192.398,173.946 185.811,174.169 182.437,173.861ZM194.738,157.192C200.692,156.505 205.043,154.934 206.958,152.779C208.423,151.132 209.355,149.401 211.263,144.781C212.189,142.54 214.4,137.723 216.176,134.075L219.405,127.444L219.597,129.468C220.685,140.952 227.102,148.024 240.553,152.561C254.9,157.4 267.122,158.275 282.053,155.532C294.788,153.192 309.125,147.692 322.345,140.075C324.154,139.033 325.674,138.18 325.722,138.18C325.771,138.18 325.756,139.832 325.69,141.85C325.407,150.507 327.886,152.75 340.497,155.249C352.299,157.587 366.034,157.837 380.484,155.977C393.338,154.322 422.984,147.649 433.137,144.126C446.063,139.639 452.143,133.724 454.827,123.021L455.535,120.197L454.911,119.68C453.949,118.883 450.952,118.055 448.201,117.825C442.671,117.364 435.455,118.602 421.436,122.418C407.728,126.15 401.309,127.327 392.77,127.674C383.637,128.045 373.019,126.123 371.84,123.885C371.151,122.576 371.769,120.656 373.23,119.563C378.053,115.957 385.595,114.765 406.81,114.257C428.59,113.735 436.044,112.207 442.48,106.945C447.148,103.129 449.873,97.732 449.253,93.531C448.466,88.196 441.15,84.902 431.108,85.361C426.273,85.582 422.838,86.229 412.807,88.808C408.383,89.945 403.315,91.094 401.545,91.36C396.86,92.065 387.709,91.987 386.506,91.232C386.245,91.067 386.303,90.752 386.734,89.999C387.053,89.442 387.797,87.794 388.387,86.336C389.525,83.524 390.478,81.808 391.275,81.136C391.948,80.569 402.083,80.863 411.783,81.732C420.388,82.502 431.933,82.658 436.062,82.059C448.926,80.194 458.436,75.078 467.061,65.384C468.275,64.018 469.794,62.383 470.436,61.751C471.167,61.03 471.602,60.33 471.602,59.877C471.602,59.097 471.368,58.976 469.262,58.666C466.229,58.22 456.101,56.315 445.569,54.208C420.462,49.187 408.973,47.313 394.232,45.832C386.911,45.096 365.885,45.073 360.405,45.795C355.199,46.481 354.664,46.779 348.025,52.691C347.127,53.491 346.316,54.068 346.224,53.974C346.132,53.88 346.455,52.49 346.942,50.885C347.429,49.28 347.917,47.467 348.026,46.857C348.264,45.529 348.255,45.524 343.231,44.221C326.793,39.959 309.273,43.209 286.587,54.729C265.921,65.223 251.214,75.158 237.882,87.63L235.201,90.137L237.306,86.589C242.324,78.133 246.291,72.501 253.766,63.221C259.072,56.632 259.394,56.18 258.892,56C255.768,54.876 233.889,49.566 225.306,47.848C217.407,46.266 211.2,45.676 206.427,46.052C200.634,46.508 197.392,47.831 193.778,51.213C190.014,54.735 189.194,54.937 184.041,53.609C175.934,51.521 165.204,51.871 151.007,54.686C130.819,58.689 123.631,62.489 123.006,69.49C122.899,70.688 123.123,72.517 123.794,75.914C125.403,84.069 124.876,85.822 117.092,98.192C113.625,103.7 111.767,106.119 109.663,107.861C107.839,109.371 105.98,110.378 105.645,110.038C104.951,109.333 104.437,102.27 104.588,95.526C104.791,86.494 106.499,75.738 110.206,60.154C111.562,54.454 111.889,48.95 111.089,45.298L110.583,42.983L108.052,43.146C104.238,43.391 102.271,44.165 94.259,48.575C92.087,49.77 87.612,51.842 84.314,53.178C71.051,58.552 64.819,62.337 60.702,67.52C56.728,72.523 55.124,77.853 55.431,85.045C55.625,89.582 56.171,91.541 59.932,101.173C65.996,116.708 69.911,124.556 77.175,135.736C79.01,138.561 80.511,141 80.511,141.157C80.511,141.314 78.956,143.016 77.056,144.939C74.368,147.658 73.523,148.707 73.253,149.658C72.714,151.558 72.818,152.034 73.987,153.013C75.912,154.626 78.056,155.176 83.06,155.343C93.753,155.7 102.286,152.84 118.16,143.577C135.517,133.448 145.198,124.616 165.944,99.984C169.249,96.061 173.12,91.379 174.546,89.581C177.832,85.437 178.936,84.238 180.454,83.165L181.673,82.303L182.02,83.861C182.211,84.718 182.432,87.359 182.511,89.729C182.761,97.192 181.738,101.377 176.79,113.119C169.624,130.128 166.589,142.957 168.215,149.375C169.298,153.651 174.324,156.144 184.207,157.308C186.197,157.543 192.282,157.476 194.738,157.192ZM273.717,129.272C267.66,127.905 264.397,124.513 264.415,119.602C264.425,116.964 264.824,115.503 266.443,112.183C269.58,105.752 274.095,100.137 283.87,90.513C287.456,86.982 291.502,82.825 292.862,81.274C294.222,79.724 295.384,78.506 295.445,78.567C295.641,78.766 293.847,85.216 291.303,93.461C289.1,100.601 287.028,107.903 287.026,108.53C287.026,109.173 296.569,108.545 310.866,106.964C316.658,106.323 322.685,105.708 324.26,105.596C326.901,105.41 327.165,105.334 327.663,104.621C328.37,103.611 329.549,100.738 330.176,98.498C330.451,97.517 330.77,96.611 330.885,96.484C331.178,96.161 332.478,98.693 333.292,101.173C334.173,103.858 334.277,109.975 333.472,111.8C332.996,112.88 332.934,112.914 331.467,112.914C325.647,112.914 318.019,115.161 308.526,119.67C291.25,127.876 287.312,129.188 279.274,129.413C276.861,129.48 274.36,129.416 273.717,129.272ZM339.237,74.055C339.352,73.766 340.097,71.657 340.891,69.368C341.685,67.08 342.547,64.632 342.807,63.93L343.279,62.652L344.184,63.527C345.583,64.877 347.75,65.837 352.671,67.285C356.819,68.506 360.447,69.875 360.447,70.219C360.447,70.464 357.552,71.006 351.388,71.914C345.613,72.764 341.619,73.576 339.865,74.256C339.116,74.547 339.049,74.525 339.237,74.055Z" style="fill:rgb(208,208,208);fill-rule:nonzero;"/>
    </g>
</svg>
